src/assets/img/svg_sources/icon-service-design.svg

<svg width="42" height="42" viewBox="0 0 42 42" fill="none" xmlns="http://www.w3.org/2000/svg">
<path fill-rule="evenodd" clip-rule="evenodd" d="M0 3C0 1.89543 0.895431 1 2 1H35C36.1046 1 37 1.89543 37 3V20H40C41.1046 20 42 20.8954 42 22V38C42 39.1046 41.1046 40 40 40H32C30.8954 40 30 39.1046 30 38V29H2C0.895431 29 0 28.1046 0 27V3ZM35 3V20H32C30.8954 20 30 20.8954 30 22V27H2V3H35ZM40 33H32V22H40V33ZM32 35V38H40V35H32Z" fill="#C7A21E"/>
<path fill-rule="evenodd" clip-rule="evenodd" d="M12 31H26L28 37H10L12 31ZM12.7749 35L13.4415 33H24.5585L25.2251 35H12.7749Z" fill="#C7A21E"/>
</svg>

<svg width="42" height="42" viewBox="0 0 42 42" fill="none" xmlns="http://www.w3.org/2000/svg"><path fill-rule="evenodd" clip-rule="evenodd" d="M0 3a2 2 0 0 1 2-2h33a2 2 0 0 1 2 2v17h3a2 2 0 0 1 2 2v16a2 2 0 0 1-2 2h-8a2 2 0 0 1-2-2v-9H2a2 2 0 0 1-2-2V3zm35 0v17h-3a2 2 0 0 0-2 2v5H2V3h33zm5 30h-8V22h8v11zm-8 2v3h8v-3h-8z" fill="#C7A21E"/><path fill-rule="evenodd" clip-rule="evenodd" d="M12 31h14l2 6H10l2-6zm.775 4l.666-2h11.117l.667 2h-12.45z" fill="#C7A21E"/></svg>
